X: 52
T: The Ruby
R:Air
C:Phil Cunningham
M:3/4
L:1/4
K:D
|: A2 B | d2 B | e3 | e2 f | A2 B | d>ef | g2 G | d< B- B |
|  e2 f | d2 B | e3 | d2 B | A2 f | e2c  | d3   | d2 f :|
|: a2 d | f2 d |(B3 | B2) (3a/g/f/| g2 G | d2 B | B/ (A3/ A) | A2 f/>g/ |
|  a2 d | f2 d | B3 | d2 B | A2 f | e2 c |1 (d3 | d) f/>g/ :|2 (d3 | d3) |]

%%sep 2 1 500

